icons/1_Primary/Plex.svg

<svg width="1024" height="1024" fill="none" xmlns="http://www.w3.org/2000/svg"><g clip-path="url(#a)"><path d="M512 1024c282.77 0 512-229.23 512-512S794.77 0 512 0 0 229.23 0 512s229.23 512 512 512Z" fill="#F9DE81"/><path d="M297.83 418.56c-25.24 0-41.72 7.37-55.74 24.54v-18.93H193v233.5c1.077.445 2.196.78 3.34 1 3.64.78 21.57 4.92 35-6.55 11.6-9.93 14.27-21.42 14.27-34.64V583.7c14 15.07 30.15 21.39 52.59 21.39 48.38 0 85.55-39.27 85.55-91.51 0-55.74-35.76-95-85.9-95l-.02-.02Zm-9.56 142.58c-27 0-48.58-22.36-48.58-49.74 0-27.38 25.27-48.2 48.58-48.2 27.38 0 48.58 21.21 48.58 48.58 0 27.37-21.21 49.37-48.58 49.37v-.01Zm165.26-52.63c0 20.22 2.24 44.75 22.17 71.57.39.52 1.48 1.83 1.48 1.83-8.06 13.83-18.21 23.14-31.51 23.14-10.49 0-20.74-5.55-29.27-15.23-9.12-10.34-13.48-23.84-13.48-37.9V364h50.62v144.52l-.01-.01Zm249.31 91h-60.89l59.1-87.61-59.1-87.68h60.89l59.09 87.68-59.09 87.61Zm75.34-97.54L831 424.19h-61.13l-22.27 32.4 30.58 45.38Zm-30.57 65.54L758 581.92c10 15.67 22.81 23.11 38.09 23.17 15.85-.28 27.13-14.33 31.27-19.25a190.127 190.127 0 0 1-17.51-18.39c-13.19-15.67-31-44.13-31.64-45.35l-30.56 45.4-.04.01Zm-151.17-18.43c-10.18 9.39-17.13 14.83-31.6 14.83-25.65 0-40-17.9-42.13-37.88h135a38.316 38.316 0 0 0 1.41-11.75c0-54.69-40-95.72-92.56-95.72s-91.16 41.72-91.16 94 41 92.56 92.21 92.56c35.74 0 66.6-20.45 83.57-56h-54.74v-.04ZM566.93 460c22.36 0 39.09 14.75 42.94 34h-85.5c4.63-20.43 20.2-34 42.56-34Z" fill="#fff"/></g><defs><clipPath id="a"><path fill="#fff" d="M0 0h1024v1024H0z"/></clipPath></defs></svg>

<svg width="1024" height="1024" viewBox="0 0 1024 1024" fill="none" xmlns="http://www.w3.org/2000/svg">
<g clip-path="url(#clip0_2_3165)">
<path d="M512 1024C794.77 1024 1024 794.77 1024 512C1024 229.23 794.77 0 512 0C229.23 0 0 229.23 0 512C0 794.77 229.23 1024 512 1024Z" fill="#F9DE81"/>
<path d="M297.83 418.56C272.59 418.56 256.11 425.93 242.09 443.1V424.17H193V657.67C194.077 658.115 195.196 658.45 196.34 658.67C199.98 659.45 217.91 663.59 231.34 652.12C242.94 642.19 245.61 630.7 245.61 617.48V583.7C259.61 598.77 275.76 605.09 298.2 605.09C346.58 605.09 383.75 565.82 383.75 513.58C383.75 457.84 347.99 418.58 297.85 418.58L297.83 418.56ZM288.27 561.14C261.27 561.14 239.69 538.78 239.69 511.4C239.69 484.02 264.96 463.2 288.27 463.2C315.65 463.2 336.85 484.41 336.85 511.78C336.85 539.15 315.64 561.15 288.27 561.15V561.14ZM453.53 508.51C453.53 528.73 455.77 553.26 475.7 580.08C476.09 580.6 477.18 581.91 477.18 581.91C469.12 595.74 458.97 605.05 445.67 605.05C435.18 605.05 424.93 599.5 416.4 589.82C407.28 579.48 402.92 565.98 402.92 551.92V364H453.54V508.52L453.53 508.51ZM702.84 599.51H641.95L701.05 511.9L641.95 424.22H702.84L761.93 511.9L702.84 599.51ZM778.18 501.97L831 424.19H769.87L747.6 456.59L778.18 501.97ZM747.61 567.51L758 581.92C768 597.59 780.81 605.03 796.09 605.09C811.94 604.81 823.22 590.76 827.36 585.84C821.12 580.107 815.27 573.963 809.85 567.45C796.66 551.78 778.85 523.32 778.21 522.1L747.65 567.5L747.61 567.51ZM596.44 549.08C586.26 558.47 579.31 563.91 564.84 563.91C539.19 563.91 524.84 546.01 522.71 526.03H657.71C658.786 522.21 659.261 518.246 659.12 514.28C659.12 459.59 619.12 418.56 566.56 418.56C514 418.56 475.4 460.28 475.4 512.56C475.4 564.84 516.4 605.12 567.61 605.12C603.35 605.12 634.21 584.67 651.18 549.12H596.44V549.08ZM566.93 460C589.29 460 606.02 474.75 609.87 494H524.37C529 473.57 544.57 460 566.93 460Z" fill="white"/>
</g>
<defs>
<clipPath id="clip0_2_3165">
<rect width="1024" height="1024" fill="white"/>
</clipPath>
</defs>
</svg>
